material/.icons/material/bus-alert.svg

<svg xmlns="http://www.w3.org/2000/svg" viewBox="0 0 24 24"><path d="M16 1a7 7 0 017 7c0 3.53-2.61 6.45-6 6.93V18c0 .84-.35 1.58-1.04 2.2V22c0 .27-.09.5-.28.71-.18.2-.42.29-.68.29h-1a.98.98 0 01-.73-.29.964.964 0 01-.31-.71v-1H5.04v1c0 .27-.1.5-.31.71-.2.2-.44.29-.73.29H3c-.26 0-.5-.09-.68-.29-.19-.21-.28-.44-.28-.71v-1.8C1.35 19.58 1 18.84 1 18V8c0-1.58.7-2.65 2.07-3.2C4.44 4.26 6.42 4 9 4l1.23.03A7.013 7.013 0 0116 1m0 2a5 5 0 00-5 5 5 5 0 005 5 5 5 0 005-5 5 5 0 00-5-5m-1 7h2v2h-2v-2m0-6h2v5h-2V4M3 13h8.09A7.01 7.01 0 019 8H3v5m1.5 3c-.81 0-1.5.67-1.5 1.5A1.5 1.5 0 004.5 19c.85 0 1.5-.67 1.5-1.5A1.5 1.5 0 004.5 16m9 0c-.85 0-1.5.67-1.5 1.5a1.5 1.5 0 001.5 1.5c.81 0 1.5-.67 1.5-1.5a1.5 1.5 0 00-1.5-1.5z"/></svg>

<?xml version="1.0" encoding="UTF-8"?><!DOCTYPE svg PUBLIC "-//W3C//DTD SVG 1.1//EN" "http://www.w3.org/Graphics/SVG/1.1/DTD/svg11.dtd"><svg xmlns="http://www.w3.org/2000/svg" xmlns:xlink="http://www.w3.org/1999/xlink" version="1.1" id="mdi-bus-alert" width="24" height="24" viewBox="0 0 24 24"><path d="M16,1A7,7 0 0,1 23,8C23,11.53 20.39,14.45 17,14.93V18C17,18.84 16.65,19.58 15.96,20.2V22C15.96,22.27 15.87,22.5 15.68,22.71C15.5,22.91 15.26,23 15,23H14C13.71,23 13.47,22.91 13.27,22.71C13.06,22.5 12.96,22.27 12.96,22V21H5.04V22C5.04,22.27 4.94,22.5 4.73,22.71C4.53,22.91 4.29,23 4,23H3C2.74,23 2.5,22.91 2.32,22.71C2.13,22.5 2.04,22.27 2.04,22V20.2C1.35,19.58 1,18.84 1,18V8C1,6.42 1.7,5.35 3.07,4.8C4.44,4.26 6.42,4 9,4L10.23,4.03C11.5,2.2 13.61,1 16,1M16,3A5,5 0 0,0 11,8A5,5 0 0,0 16,13A5,5 0 0,0 21,8A5,5 0 0,0 16,3M15,10H17V12H15V10M15,4H17V9H15V4M3,13H11.09C9.8,11.72 9,9.96 9,8H3V13M4.5,16C3.69,16 3,16.67 3,17.5A1.5,1.5 0 0,0 4.5,19C5.35,19 6,18.33 6,17.5A1.5,1.5 0 0,0 4.5,16M13.5,16C12.65,16 12,16.67 12,17.5A1.5,1.5 0 0,0 13.5,19C14.31,19 15,18.33 15,17.5A1.5,1.5 0 0,0 13.5,16Z" /></svg>
